assets/images/avatar/Avatar 05.svg

<svg fill="none" height="128" viewBox="0 0 128 128" width="128" xmlns="http://www.w3.org/2000/svg" xmlns:xlink="http://www.w3.org/1999/xlink"><mask id="a" height="112" maskUnits="userSpaceOnUse" width="116" x="6" y="8"><path clip-rule="evenodd" d="m66.2857 8.94523c15.3269.76184 38.4273 7.25827 48.1453 19.13267 9.824 12.0035 8.141 28.7024 5.16 43.9231-3.144 16.0562-7.667 33.041-21.8339 41.23-15.2471 8.814-33.932 7.122-50.2181.419-17.7468-7.304-35.2979-18.8518-39.85747-37.4901-4.62094-18.8892 3.69727-39.1544 17.84237-52.5013 12.2566-11.565 23.9296-15.55005 40.7618-14.71337z" fill="#eff6f7" fill-rule="evenodd"/></mask><g mask="url(#a)"><path clip-rule="evenodd" d="m72.7489 14.7639c15.3269.7619 31.9641 1.4396 41.6821 13.3139 9.824 12.0036 8.141 28.7025 5.16 43.9232-3.144 16.0562-7.667 33.041-21.8339 41.23-15.2471 8.814-33.932 7.122-50.2181.419-17.7468-7.304-35.2979-18.8518-39.85747-37.4901-4.62094-18.8892 3.69727-39.1544 17.84237-52.5013 12.2566-11.565 30.3928-9.7314 47.225-8.8947z" fill="#eff6f7" fill-rule="evenodd"/><path d="m75.4561 60.6184c0 8.4632-2.944 22.0099 7.36 26.5417 6.7443 2.9684 13.4491 3.5383 22.1649 8.8899 10.472 6.43 12.742 14.906 14.711 26.49h-110.85387c0-1.359 2.43807-11.965 5.73867-17.813 4.9311-8.7197 18.8099-13.3703 25.7524-16.9178 6.4-3.267 11.0385-10.3863 9.6853-26.4685-1.0057-11.8339 25.4416-15.421 25.4416-.7223z" fill="#e7baef"/><path d="m119.689 122.537h-110.85087c0-1.362 2.43807-11.965 5.74177-17.813 4.9219-8.7227 18.8068-13.3734 25.7523-16.9117.3688-.1889.7223-.3901 1.0789-.6095 3.3127 3.5505 10.3619 6.0586 17.5756 6.1653h.5547c7.1131-.0244 16.4144-2.1547 21.4704-7.1832.0244 0 .0458.0335.0823.0579.5523.3477 1.1299.6533 1.728.9143 6.7353 2.9714 13.4461 3.5382 22.1559 8.8899 10.469 6.427 12.745 14.915 14.711 26.49z" fill="#8a94af"/><path d="m75.0995 72.9125c-.1585-4.2972.3565-8.7436.3565-12.2941 0-14.6987-26.4411-11.1116-25.4415.7223.7101 8.4236-.2377 14.3725-2.2095 18.6118 7.9512 4.5135 21.3455-.2042 27.2945-7.04z" fill="#db9fe6"/><g fill="#2d2747"><path d="m59.5414 93.3742c-7.3631.1524-14.8176-2.6149-18.1303-6.1653.1402-.3048 2.7977-4.3368 4.1508-5.8454 0 0 3.1025 2.5235 9.3227 3.9223 4.3581.9783 4.4465 3.9406 4.6568 8.0884z"/><path d="m81.0576 86.1422s.0487.0945.0365.1067c-2.9165 3.1543-8.838 7.3143-21.5527 7.1253-.1981-2.8251.579-6.9455 4.4312-7.9238 6.2415-1.5878 10.8282-4.0838 13.309-5.9795 1.5268 2.1395 3.0537 4.6599 3.776 6.6713z"/><path d="m60.7756 122.598-2.3649-.116c0-.192.9326-20.328-.0518-29.6807h2.3527c1.0058 9.5327.1037 28.9917.064 29.7967z"/><path d="m60.9341 107.085c-3.3097 0-6.8297-.06-9.1825-.265-.3128-.027-.602-.177-.8041-.417-.202-.241-.3003-.551-.2732-.864s.1773-.602.4176-.804.5511-.301.8639-.274c5.4095.47 17.6518.144 17.7737.141.1553-.005.3099.021.4551.077.1451.055.278.139.3909.245.1129.107.2037.235.2672.377.0635.141.0984.294.1028.45.0044.155-.0218.31-.0771.455-.0554.145-.1388.278-.2455.391-.1067.112-.2346.203-.3764.267-.1418.063-.2946.098-.4499.103-.2926.009-4.3855.118-8.8625.118z"/><path d="m62.6774 118.097c-3.5109 0-7.3143-.071-10.4473-.15-.156-.003-.3096-.038-.4522-.101-.1425-.063-.2711-.155-.3783-.268-.1071-.113-.1907-.247-.2459-.393s-.0809-.301-.0756-.457c.0127-.313.1473-.609.3751-.824.2277-.215.5306-.333.844-.328 5.504.137 12.9889.247 17.4049 0 .1551-.009.3104.013.4571.064.1466.052.2817.131.3976.235.1159.103.2103.228.2778.368s.1067.292.1155.447-.013.31-.0642.457-.1308.282-.2342.398c-.1035.116-.2287.21-.3686.277-.14.068-.2918.107-.4469.116-1.9535.119-4.4739.159-7.1588.159z"/></g><path d="m42.4716 29.746c-1.8712 5.8606-2.6362 14.3817-2.7733 15.8141-.7497 7.8324 1.1093 15.3112 4.1295 20.5501 2.6728 4.6263 9.1764 9.9322 12.8 10.1821 7.1497.4937 16.8716-5.0865 21.7722-13.8088 2.8434-5.0621 1.3592-10.7002 3.2061-16.9234 4.5714-15.4392-.4876-28.1021-20.547-27.1512-11.2488.5333-16.2499 4.0137-18.5875 11.3371z" fill="#e7baef"/><path d="m74.1029 29.164s2.8068 3.6175 3.3676 7.8354c.6705 5.0377-.5059 7.7958-.4023 10.5417.1646 4.3916 2.7673 5.8514 2.7673 5.8514s1.6091.256 5.8971-6.0525c7.2503-10.6667 5.1078-26.5296-4.8366-31.0858-10.9805-5.0407-6.7931 12.9098-6.7931 12.9098z" fill="#28213d"/><path d="m74.7063 29.9868c2.2888-2.685 2.2187-6.5859 1.1855-12.7787-1.2556-7.53978-21.187-10.02359-31.9634-.7588-12.9371 11.1268-14.2019 35.3127-3.1847 41.1946-1.7494-11.7303 1.5756-21.7539 7.1131-24.2712-1.7128 2.1151-2.6179 6.0434-.9143 8.9813 2.3954-4.8518 8.1432-10.7946 12.8-11.2975-.1006.704-3.3006 4.3581-1.8286 7.2503 5.1139-6.5463 13.312-4.2453 16.7924-8.32z" fill="#28213d"/><path d="m80.4937 49.8908c.9143-4.6233 4.5715-7.4179 6.2964-4.8579 1.0088 1.4933.0488 4.3855-1.8651 7.4788-2.6179 4.2301-4.7513 5.0926-5.3395 5.1322s.3048-4.7299.9082-7.7531z" fill="#e7baef"/></g></svg>

<svg width="128" height="128" viewBox="0 0 128 128" fill="none" xmlns="http://www.w3.org/2000/svg">
<mask id="mask0_457_1652" style="mask-type:alpha" maskUnits="userSpaceOnUse" x="6" y="8" width="116" height="112">
<path fill-rule="evenodd" clip-rule="evenodd" d="M66.2857 8.94523C81.6126 9.70707 104.713 16.2035 114.431 28.0779C124.255 40.0814 122.572 56.7803 119.591 72.001C116.447 88.0572 111.924 105.042 97.7571 113.231C82.51 122.045 63.8251 120.353 47.539 113.65C29.7922 106.346 12.2411 94.7982 7.68153 76.1599C3.06059 57.2707 11.3788 37.0055 25.5239 23.6586C37.7805 12.0936 49.4535 8.10855 66.2857 8.94523Z" fill="#EFF6F7"/>
</mask>
<g mask="url(#mask0_457_1652)">
<path fill-rule="evenodd" clip-rule="evenodd" d="M72.7489 14.7639C88.0758 15.5258 104.713 16.2035 114.431 28.0778C124.255 40.0814 122.572 56.7803 119.591 72.001C116.447 88.0572 111.924 105.042 97.7571 113.231C82.51 122.045 63.8251 120.353 47.539 113.65C29.7922 106.346 12.2411 94.7982 7.68153 76.1599C3.06059 57.2707 11.3788 37.0055 25.5239 23.6586C37.7805 12.0936 55.9167 13.9272 72.7489 14.7639Z" fill="#EFF6F7"/>
<path d="M75.4561 60.6184C75.4561 69.0816 72.5121 82.6283 82.8161 87.1601C89.5604 90.1285 96.2652 90.6984 104.981 96.05C115.453 102.48 117.723 110.956 119.692 122.54H8.83813C8.83813 121.181 11.2762 110.575 14.5768 104.727C19.5079 96.0073 33.3867 91.3567 40.3292 87.8092C46.7292 84.5422 51.3677 77.4229 50.0145 61.3407C49.0088 49.5068 75.4561 45.9197 75.4561 60.6184Z" fill="#E7BAEF"/>
<path d="M119.689 122.537H8.83813C8.83813 121.175 11.2762 110.572 14.5799 104.724C19.5018 96.0013 33.3867 91.3506 40.3322 87.8123C40.701 87.6234 41.0545 87.4222 41.4111 87.2028C44.7238 90.7533 51.773 93.2614 58.9867 93.3681H59.5414C66.6545 93.3437 75.9558 91.2134 81.0118 86.1849C81.0362 86.1849 81.0576 86.2184 81.0941 86.2428C81.6464 86.5905 82.224 86.8961 82.8221 87.1571C89.5574 90.1285 96.2682 90.6953 104.978 96.047C115.447 102.474 117.723 110.962 119.689 122.537Z" fill="#8A94AF"/>
<path d="M75.0995 72.9125C74.941 68.6153 75.456 64.1689 75.456 60.6184C75.456 45.9197 49.0149 49.5068 50.0145 61.3407C50.7246 69.7643 49.7768 75.7132 47.805 79.9525C55.7562 84.466 69.1505 79.7483 75.0995 72.9125Z" fill="#DB9FE6"/>
<path d="M59.5414 93.3742C52.1783 93.5266 44.7238 90.7593 41.4111 87.2089C41.5513 86.9041 44.2088 82.8721 45.5619 81.3635C45.5619 81.3635 48.6644 83.887 54.8846 85.2858C59.2427 86.2641 59.3311 89.2264 59.5414 93.3742Z" fill="#2D2747"/>
<path d="M81.0576 86.1422C81.0576 86.1422 81.1063 86.2367 81.0941 86.2489C78.1776 89.4032 72.2561 93.5632 59.5414 93.3742C59.3433 90.5491 60.1204 86.4287 63.9726 85.4504C70.2141 83.8626 74.8008 81.3666 77.2816 79.4709C78.8084 81.6104 80.3353 84.1308 81.0576 86.1422Z" fill="#2D2747"/>
<path d="M60.7756 122.598L58.4107 122.482C58.4107 122.29 59.3433 102.154 58.3589 92.8013H60.7116C61.7174 102.334 60.8153 121.793 60.7756 122.598Z" fill="#2D2747"/>
<path d="M60.9341 107.085C57.6244 107.085 54.1044 107.025 51.7516 106.82C51.4388 106.793 51.1496 106.643 50.9475 106.403C50.7455 106.162 50.6472 105.852 50.6743 105.539C50.7014 105.226 50.8516 104.937 51.0919 104.735C51.3322 104.533 51.643 104.434 51.9558 104.461C57.3653 104.931 69.6076 104.605 69.7295 104.602C69.8848 104.597 70.0394 104.623 70.1846 104.679C70.3297 104.734 70.4626 104.818 70.5755 104.924C70.6884 105.031 70.7792 105.159 70.8427 105.301C70.9062 105.442 70.9411 105.595 70.9455 105.751C70.9499 105.906 70.9237 106.061 70.8684 106.206C70.813 106.351 70.7296 106.484 70.6229 106.597C70.5162 106.709 70.3883 106.8 70.2465 106.864C70.1047 106.927 69.9519 106.962 69.7966 106.967C69.504 106.976 65.4111 107.085 60.9341 107.085Z" fill="#2D2747"/>
<path d="M62.6774 118.097C59.1665 118.097 55.3631 118.026 52.2301 117.947C52.0741 117.944 51.9205 117.909 51.7779 117.846C51.6354 117.783 51.5068 117.691 51.3996 117.578C51.2925 117.465 51.2089 117.331 51.1537 117.185C51.0985 117.039 51.0728 116.884 51.0781 116.728C51.0908 116.415 51.2254 116.119 51.4532 115.904C51.6809 115.689 51.9838 115.571 52.2972 115.576C57.8012 115.713 65.2861 115.823 69.7021 115.576C69.8572 115.567 70.0125 115.589 70.1592 115.64C70.3058 115.692 70.4409 115.771 70.5568 115.875C70.6727 115.978 70.7671 116.103 70.8346 116.243C70.9021 116.383 70.9413 116.535 70.9501 116.69C70.9589 116.845 70.9371 117 70.8859 117.147C70.8347 117.294 70.7551 117.429 70.6517 117.545C70.5482 117.661 70.423 117.755 70.2831 117.822C70.1431 117.89 69.9913 117.929 69.8362 117.938C67.8827 118.057 65.3623 118.097 62.6774 118.097Z" fill="#2D2747"/>
<path d="M42.4716 29.746C40.6004 35.6066 39.8354 44.1277 39.6983 45.5601C38.9486 53.3925 40.8076 60.8713 43.8278 66.1102C46.5006 70.7365 53.0042 76.0424 56.6278 76.2923C63.7775 76.786 73.4994 71.2058 78.4 62.4835C81.2434 57.4214 79.7592 51.7833 81.6061 45.5601C86.1775 30.1209 81.1185 17.458 61.0591 18.4089C49.8103 18.9422 44.8092 22.4226 42.4716 29.746Z" fill="#E7BAEF"/>
<path d="M74.1029 29.164C74.1029 29.164 76.9097 32.7815 77.4705 36.9994C78.141 42.0371 76.9646 44.7952 77.0682 47.5411C77.2328 51.9327 79.8355 53.3925 79.8355 53.3925C79.8355 53.3925 81.4446 53.6485 85.7326 47.34C92.9829 36.6733 90.8404 20.8104 80.896 16.2542C69.9155 11.2135 74.1029 29.164 74.1029 29.164Z" fill="#28213D"/>
<path d="M74.7063 29.9868C76.9951 27.3018 76.925 23.4009 75.8918 17.2081C74.6362 9.66832 54.7048 7.18451 43.9284 16.4493C30.9913 27.5761 29.7265 51.762 40.7437 57.6439C38.9943 45.9136 42.3193 35.89 47.8568 33.3727C46.144 35.4878 45.2389 39.4161 46.9425 42.354C49.3379 37.5022 55.0857 31.5594 59.7425 31.0565C59.6419 31.7605 56.4419 35.4146 57.9139 38.3068C63.0278 31.7605 71.2259 34.0615 74.7063 29.9868Z" fill="#28213D"/>
<path d="M80.4937 49.8908C81.408 45.2675 85.0652 42.4729 86.7901 45.0329C87.7989 46.5262 86.8389 49.4184 84.925 52.5117C82.3071 56.7418 80.1737 57.6043 79.5855 57.6439C78.9973 57.6835 79.8903 52.914 80.4937 49.8908Z" fill="#E7BAEF"/>
</g>
</svg>
